X: 4439
T: Bonnie Dainty Davie
R: reel
M: 4/4
K: Fmajor
{d}c>BA>G F>D F2|F<cA>c F>cA<f|{d}c>BA>G F>D F2|
[1f>g a/g/f/e/ d>ef>d:|2 f>g a/g/f/e/ d>efe||
f<af<a f>a b/a/g/f/|e<gc<g e>g a/g/f/e/|f<af<a f>a b/a/g/f/|
e>c a/g/f/e/ d>ef>c|f<af<a f>a b/a/g/f/|e<gc<g e>gc>e|
(3fga (3gab (3agf (3ed^c|d/e/f/g/ a/g/f/e/ d>e f||

